material/.icons/material/format-text-rotation-none.svg

<svg xmlns="http://www.w3.org/2000/svg" viewBox="0 0 24 24"><path d="M20.5 18l-3 3v-2H5v-2h12.5v-2l3 3m-10.37-8h3.75L12 4.97 10.13 10m2.62-7l4.75 11h-2.08l-.92-2.19h-5L8.58 14H6.5l4.75-11h1.5z"/></svg>

<?xml version="1.0" encoding="UTF-8"?><!DOCTYPE svg PUBLIC "-//W3C//DTD SVG 1.1//EN" "http://www.w3.org/Graphics/SVG/1.1/DTD/svg11.dtd"><svg xmlns="http://www.w3.org/2000/svg" xmlns:xlink="http://www.w3.org/1999/xlink" version="1.1" id="mdi-format-text-rotation-none" width="24" height="24" viewBox="0 0 24 24"><path d="M20.5,18L17.5,21V19H5V17H17.5V15L20.5,18M10.13,10H13.88L12,4.97L10.13,10M12.75,3L17.5,14H15.42L14.5,11.81H9.5L8.58,14H6.5L11.25,3H12.75Z" /></svg>
